X:5859
T:Scottisch - C'est Angéle
O:england
C:J. Rousseau/Strakal
M:2/4
L:1/8
K:C
EG cB|DF AG|CE E/E/D/E/|1 FE/D/ EC:|2 FD C2||
|:CD EG|G/F/E/F/ D2|cB/A/ GG/A/|1 G/F/E/D/ EC:|2 Bd c2||


